X: 2806
T: Bantry Bay
R: hornpipe
M: 4/4
K: Gmajor
GA|:"G"BGAG "C"EGDE|"G"G2"C"GF "G"GBAG|"C"(3EFG AB "D7"cBAG|"Am"EAAG A2AB|
"C"cece "G"BdBd|"D7"ABAG "C"EGDG|"G"BGAG "C"EGDE|1 "G"G2 "C"GF "G"G2GA:|2 "G"G2 "C"GF "G"G2 (3ABc||
|:"G"d2 eB dBGA|"Em"B2e2 e2ef|"C"gfed "G"BABd|"C"(3gfg "D7"(3fga "G"g2 ef|
"G"gbgf "C"efed|"G"BGAG "C"EGDG|"G"BGAG "C"EGDE|1 "G"G2 "C"GF "G"G2 (3ABc:|2 "G"G2 "C"GF "G"G4||

